X:1
T: The Maid on the Hill
C:
R:Jig
Q:180
K:D
M:6/8
L:1/16
|:A2B2A2 A2G2F2|A2B2A2 A2G2F2|G4E2 E4F2|G4E2 E6|
A2B2A2 A2G2F2|A2B2c2 d2A2G2|F4D2 D4E2|F4D2 D4c2|
d2B2d2 c2A2c2|B2G2B2 A2G2F2|G4E2 E4F2|G4D2 E4c2|
d2B2d2 c2A2c2|B2G2B2 A2G2F2|F4D2 D4E2|F4D2 D4:|
